!!!COM: Music21
!!!OTL: Pasacorredoiras
!!!OMV: pezas_pasacorredoiras_pasacorredoiras-4_pasacorredoiras-partitura.musicxml
**kern
*I"Bagpipes
*I'Bag
*clefG^2
*k[]
*M2/4
=1
!LO:TX:a:t=Andante
*MM96
!LO:TX:a:t=[quarter]=96
4r
8ggL
16ggL
16eeJJ
=||
8aaL
16aaL
16ffJJ
16ggLL
16ff
16ee
16ddJJ
=
8eeL
8ccJ
8ffL
16ffL
16ddJJ
=
8eeL
16eeL
16ccJJ
16bLL
16cc
16dd
16eeJJ
=
16ffLL
16ee
16dd
16ccJJ
8ggL
16ggL
16eeJJ
=
8aaL
16aaL
16ffJJ
16ggLL
16ff
16ee
16ddJJ
=
8eeL
8ccJ
8ffL
16ffL
16ddJJ
!!linebreak:original
=
8eeL
16eeL
16ccJJ
16ddLL
16cc
16dd
16eeJJ
=
4cc
8ggL
16ggL
16eeJJ
=||
8aaL
16aaL
16ffJJ
16ggLL
16ff
16ee
16ddJJ
=
8eeL
8ccJ
8ffL
16ffL
16ddJJ
=
8eeL
16eeL
16ccJJ
16bLL
16cc
16dd
16eeJJ
=
16ffLL
16ee
16dd
16ccJJ
8ggL
16ggL
16eeJJ
=
8aaL
16aaL
16ffJJ
16ggLL
16ff
16ee
16ddJJ
!!linebreak:original
=
8eeL
8ccJ
8ffL
16ffL
16ddJJ
!!linebreak:original
=
8eeL
16eeL
16ccJJ
16ddLL
16cc
16dd
16eeJJ
=
4cc
16ccLL
16ee
16dd
[16ccJJ
=
16ccLL]
16ee
16dd
16bJJ
16bLL
16dd
16cc
16bJJ
=||
8ddL
8ccJ
16ccLL
16dd
16ee
16ffJJ
=
16aaLL
16gg
16ee
16ccJJ
16ggLL
16ff
16dd
16bJJ
=
8ddL
8ccJ
16ccLL
16aa
16gg
[16eeJJ
!!linebreak:original
=
16eeLL]
16gg
16ff
16ddJJ
16eeLL
16ff
16dd
16bJJ
=
8ddL
8ccJ
16ccLL
16dd
16ee
16ffJJ
=
16aaLL
16gg
16ee
16ccJJ
16ggLL
16ff
16dd
16bJJ
=
4cc
16ccLL
16ee
16dd
[16ccJJ
=
16ccLL]
16ee
16dd
16bJJ
16bLL
16dd
16cc
16bJJ
=||
8ddL
8ccJ
16ccLL
16dd
16ee
16ffJJ
!!linebreak:original
=
16aaLL
16gg
16ee
16ccJJ
16ggLL
16ff
16dd
16bJJ
=
8ddL
8ccJ
16ccLL
16aa
16gg
[16eeJJ
!!linebreak:original
=
16eeLL]
16gg
16ff
16ddJJ
16eeLL
16ff
16dd
16bJJ
=
8ddL
8ccJ
16ccLL
16dd
16ee
16ffJJ
=
16aaLL
16gg
16ee
16ccJJ
16ggLL
16ff
16dd
16bJJ
=
4cc
8ggL
16ggL
16eeJJ
=||
*-
